packages/core/src/svgs/adco.svg

<svg width="24" height="24" viewBox="0 0 24 24" fill="none" xmlns="http://www.w3.org/2000/svg">
<g clip-path="url(#clip0_31_5590)">
<path d="M0 0H24V24H0V0Z" fill="#F0F3FA"/>
<path fill-rule="evenodd" clip-rule="evenodd" d="M17.1429 18.5315V17.1986C16.6286 17.4729 14.8158 18.0001 12.4072 18.0001C9.39007 18.0001 6.21436 16.5044 6.21436 12.1801C6.21436 7.8515 9.04293 6.00007 12.0558 6.00007C15.0686 6.00007 17.7858 7.80436 17.7858 11.4001C17.7858 13.3629 16.8944 14.5715 15.9601 14.5715C15.4286 14.5715 15.4286 14.3272 15.4286 13.8258V10.5429C15.3986 9.68578 14.6701 8.14293 12.1544 8.14293C11.1044 8.14293 9.91293 8.30578 9.42864 8.47721V9.9515C9.83578 9.7715 10.8515 9.42864 11.8029 9.42864C12.9986 9.42864 13.4872 10.0715 13.4872 10.6715V11.1729C13.2129 11.0701 12.6558 10.9286 11.8758 10.9286C10.7015 10.9286 9.00007 11.3358 9.00007 13.5172C9.00007 14.8715 9.7415 15.8572 11.3744 15.8572C12.2785 15.8415 13.1434 15.4848 13.7958 14.8586C13.9521 15.1702 14.1949 15.4301 14.4951 15.6072C14.7954 15.7844 15.1403 15.8711 15.4886 15.8572C17.4558 15.8572 19.2858 14.5501 19.2858 11.1258C19.2858 7.70578 16.4615 4.71436 12.1544 4.71436C7.84721 4.71436 4.71436 7.63293 4.71436 12.0301C4.71436 16.4272 7.62864 19.2858 12.4072 19.2858C14.0131 19.2552 15.607 19.0014 17.1429 18.5315ZM13.4872 13.7058V12.6001C13.0579 12.4864 12.6156 12.4287 12.1715 12.4286C10.9286 12.4286 10.7186 12.9344 10.7186 13.4058C10.7186 13.8772 11.0486 14.5715 11.8758 14.5715C12.4629 14.5715 13.1315 14.0358 13.4915 13.7058H13.4872Z" fill="#2B2A29"/>
</g>
<defs>
<clipPath id="clip0_31_5590">
<rect width="24" height="24" fill="white"/>
</clipPath>
</defs>
</svg>

<svg xmlns="http://www.w3.org/2000/svg" width="24" height="24" fill="none" viewBox="0 0 24 24"><g clip-path="url(#a)"><path fill="#F0F3FA" d="M0 0h24v24H0z"/><path fill="#2B2A29" fill-rule="evenodd" d="M17.143 18.532v-1.333c-.514.274-2.327.801-4.736.801-3.017 0-6.193-1.496-6.193-5.82C6.214 7.852 9.043 6 12.056 6s5.73 1.804 5.73 5.4c0 1.963-.892 3.172-1.826 3.172-.531 0-.531-.245-.531-.746v-3.283c-.03-.857-.759-2.4-3.275-2.4-1.05 0-2.241.163-2.725.334v1.474c.407-.18 1.422-.522 2.374-.522 1.196 0 1.684.643 1.684 1.242v.502c-.274-.103-.831-.244-1.611-.244-1.174 0-2.876.407-2.876 2.588 0 1.354.742 2.34 2.374 2.34a3.6 3.6 0 0 0 2.422-.998 1.81 1.81 0 0 0 1.693.998c1.967 0 3.797-1.307 3.797-4.731 0-3.42-2.825-6.412-7.132-6.412s-7.44 2.919-7.44 7.316 2.915 7.256 7.693 7.256c1.606-.03 3.2-.285 4.736-.755m-3.656-4.826V12.6a5.1 5.1 0 0 0-1.315-.171c-1.243 0-1.453.505-1.453.977 0 .471.33 1.165 1.157 1.165.587 0 1.256-.535 1.616-.865z" clip-rule="evenodd"/></g><defs><clipPath id="a"><path fill="#fff" d="M0 0h24v24H0z"/></clipPath></defs></svg>
